usr/share/icons/biglinux-icons-material-dark/22/actions/description.svg

<svg xmlns="http://www.w3.org/2000/svg" viewBox="0 0 22 22">
<defs id="defs3051">
<style id="current-color-scheme" type="text/css">
.ColorScheme-Text{color:#dedede}
</style>
</defs>
<path d="M3 3v2h5V3zm7 0v1h9V3zM5 6v1h14V6zM3 9v2h5V9zm7 0v1h9V9zm-5 3v1h14v-1zm0 3v1h14v-1zm12 3v1h2v-1z" class="ColorScheme-Text" style="fill:currentColor;fill-opacity:1;stroke:none"/>
</svg>

<svg xmlns="http://www.w3.org/2000/svg" viewBox="0 0 22 22">
  <defs id="defs3051">
    <style type="text/css" id="current-color-scheme">
      .ColorScheme-Text {
        color:#dedede;
      }
      </style>
  </defs>
 <path 
    style="fill:currentColor;fill-opacity:1;stroke:none" 
    d="M 3 3 L 3 5 L 8 5 L 8 3 L 3 3 z M 10 3 L 10 4 L 19 4 L 19 3 L 10 3 z M 5 6 L 5 7 L 19 7 L 19 6 L 5 6 z M 3 9 L 3 11 L 8 11 L 8 9 L 3 9 z M 10 9 L 10 10 L 19 10 L 19 9 L 10 9 z M 5 12 L 5 13 L 19 13 L 19 12 L 5 12 z M 5 15 L 5 16 L 19 16 L 19 15 L 5 15 z M 17 18 L 17 19 L 19 19 L 19 18 L 17 18 z "
    class="ColorScheme-Text"
    />  
</svg>
